X:159
T: ICH HABE DEN FRUEHLING GESEHEN
N: E073BC
O: Europa, Mitteleuropa, Deutschland, Brandenburg, Gransee
R: Liebes - Lied, Leid, Klage, Tod
M: 4/4
L: 1/8
K: F
C2 | A2AGF2dc | c3BA2
GF | E2GGc2BG | A4z2
cB | Acccfedc | B2d2f2
ed | c2ccdcBG | F4z2

@@@ Tune index: 4472
